X:1
T:Title
%%score [ ( 1 2 ) ( 3 4 ) ]
L:1/8
Q:1/4=80
M:3/4
K:Bb
V:1 treble-8 nm="Tenor I/II"
V:2 treble-8 
V:3 bass nm="Bass I/II"
V:4 bass 
V:1
"^Moderately slow" F2 | d>d ^c3 c | e>e e3 e | d3 d =e>e | _e4 z e | e>e e3 e | e>d d3 d | %7
w: O|Hei- del- berg, dear|Hei- del- berg, thy|sons will ne'er for-|get, The|gold- en haze of|stu- dent days is|
 =e3 e ee | f4 z f | e>d e3 f | e>d d3 d | e3 d eg | ^f4 z f | =f>f f3 f | =e>e e3 e | f3 f e>d | %16
w: round a- bout us|yet. Those|days of yore will|come no more, while|through our man- ly|years, The|thought of you, so|good, so true, will|fill our eyes with|
 d4 z e | d>d d3 _a | _a>g g3 f | =e3 e _e>d | !fermata!d2 !fermata!b2 z2 |] %21
w: tears. The|thought of you, so|good, so true, will|fill our eyes with|tears. *|
V:2
 F2 | F>B A3 G | G>F F3 F | B3 B c>G | c4 x F | F>G A3 c | c>B B3 B | A3 G D=E | F4 x F | %9
 c>=B c3 d | c>B F3 F | c3 =B c^c | d4 z d | d>G G3 d | d>c c3 B | F3 d c>B | B4 z F | F>B B3 f | %18
 f>e e3 d | c3 G A>B | (B2 f2) x2 |] %21
V:3
 F,2 | F,>F, =E,3 G, | A,>A, A,3 A, | B,3 B, G,>B, | A,4 z A, | A,>B, C3 A, | A,>B, B,3 B, | %7
 B,3 B, B,B, | A,4 z A, | A,>^G, A,3 A, | F,>F, B,3 B, | A,3 ^G, A,B, | (A,2 C2) z C | %13
 =B,>B, B,3 B, | _B,>B, B,3 ^C | D3 B, A,>B, | B,4 z C | B,>F, F,3 D | D>B, B,3 =B, | G,3 B, C>F, | %20
 (!fermata!F,2 !fermata!D2) z2 |] %21
V:4
 F,2 | B,,>B,, B,,3 B,, | C,>C, F,3 F, | G,3 G, C,>C, | F,4 x F, | F,>F, F,3 ^F, | ^F,>G, G,3 G, | %7
 C,3 C, C,C, | F,4 z F, | F,>F, F,3 F, | B,,>B,, B,,3 B,, | F,3 F, F,E, | D,4 z D, | G,>G, G,3 G, | %14
 C,>C, C,3 G, | F,3 F, ^F,>G, | [G,,G,]4 z A,, | B,,>B,, B,,3 B, | B,>E, E,3 G, | C,3 C, F,>B,, | %20
 (B,,2 B,2) x2 |] %21

